X: 36081
T: Scatter The Mud
R: jig
M: 6/8
K: Adorian
|:eAA BcB|eAA ABd|eAA BcB|dBG GBd|
eAA BcB|eAA AGE|GAB Bge|1 dBA A3:|2 dBA A2d||
|:eaa egg|dBA ABd|eaa egg|dBG GBd|
e2fg2e|d2A AGE|GAB Bge|1 dBA A2d:|2 dBA A3||
|:Aced3|Ace dec|Aced3|BAA ABd|
Aced3|Ace dec|BAG ABd|gede3:|

